X:1
T:Variations
T:Variations for two pianos
T:On 'Once In Royal David's City' 
T:James Mayhew
C:James Mayhew
%%score { 1 | ( 2 3 ) } { 4 | ( 5 6 ) }
L:1/8
Q:1/4=120
M:4/4
K:G
V:1 treble nm="Piano 1" snm="Pno."
V:2 bass 
V:3 bass 
V:4 treble nm="Piano 2" snm="Pno."
V:5 bass 
V:6 bass 
V:1
"^Theme"!f!{/c'} [dgb]2 [dg^a][dgb] [df=ac']2 [Adfa]2 |!mf! D2 F2 G3 G | GFGA A2 G2 | G2 B2 d3 B | %4
 BAGF G4 | D2 F2 G3 G | GFGA A2 G2 | G2 B2 d3 B | BAGF G4 | e2 e2 d3 G | c2 c2 B4 | e2 e2 d3 B | %12
 BAGF G4 |][Q:1/4=120]"^Variation 1"!p! [dd']2 [cc']2 [Bb]2 [Gg]2 | [Dd]2 [Gg]2 [Aa]2 [Gg]2 | %15
!mf! [Dd]2 [Ee]2 [Ff]2 [Gg]2 | [Aa]2 [Dd]2 [Aa]2 [Gg]2 | [ee']2 [ee']2 [dd']2 [Gg]2 | %18
 [cc']2 [cc']2 [Bb]2 [Gg]2 | [ee']2 [ee']2 [dd']2 [Bb]2 | [Bb]2 [Aa]2 !fermata![Gg]4 |] %21
[Q:1/4=120]"^Variation 2"!mf! !4!D/!3!D/!2!D/!1!D/ !4!F/!3!F/!2!F/!1!F/ !4!G/G/G/G/ GG | %22
 GFGA A/A/A/A/ G/G/G/G/ | G/G/G/G/ B/B/B/B/ d/d/d/d/ dB | BAGF G/G/G/G/ g/!1!G/!2!G/!1!G/ | %25
 !4!D/D/D/D/ F/F/F/F/ G/G/G/G/ GG | GFGA A/A/A/A/ G/G/G/G/ | G/G/G/G/ B/B/B/B/ d/d/d/d/ dB | %28
 BAGF G/G/G/G/ g/G/G/G/ | e/e/e/e/ e/e/e/e/ d/d/d/d/ dG | c/c/c/c/ c/c/c/c/ B/B/B/B/ BG | %31
 e/e/e/e/ e/e/e/e/ d/d/d/d/ dB | BAGF G/G/G/G/ !fermata!G2 |] %33
"^Like a reel"[Q:1/4=120]"^Variation 3"[Q:1/2=100] z4 z2!f! (3DEF | (3DEF (3DEF GB/A/ GF | %35
 G^AB^c (3def (3ed=c | (3BcB (3ABA (3GAG (3FGE | (3DEF (3DEF GB/A/ GF | G^AB^c (3def (3ed=c | %39
 (3BcB (3ABA (3GAG (3FGD | (3edc (3efg (3dcB (3dcB | (3cdc (3BcA (3GAB dd | %42
 (3edc (3efg (3dcB (3dcB | BGgA B2 A2 | G4 z4 |] %45
[K:Bb][Q:1/2=60]"^Variation 4   c."!p! d^fad' g'd'be' | d'bgc' bgda | gdBG DGBd | cAED G4 | %49
 d^fad' g'd'be' | d'bgc' bgda | gdBG DGBd | cAED G4 | ec/G/ ec dgbd' | cegc' bgdB | %55
 ec/G/ ec dgbd' | z [aa'] z [^f^f'] z [gg']/[gg']/ [gg']2 |] %57
[K:Bb]!mp![Q:1/4=120]"^Variation 5" d2 c2 c2 A2 | G^F GA/B/ AG/F/ GD | BA Bc/d/ ed/^c/ d=c/B/ | %60
 cBAB G4 | Dddc cA=EF | D2 F2 =E2 DE | FAdf =eA^c=E | GF/=E/ EF D2 C2 | %65
!mf! B,/A,/B,/C/ D/^C/D/C/ D/G/F/E/ D2 | E/D/E/^F/ G/A/B/c/ d/e/f/e/ d/c/B/A/ | %67
 G^F GG/A/ BG/F/ GD | c=B ce/^f/ d'd/^c/ dA,/^F/ | %69
[K:G] [G,G][G,G]/F/ [G,G][G,G]/F/ [G,G]/F/[G,G]/F/ [G,G]/F/[G,G]/F/ | %70
 [Dd][Dd]/^c/ [Dd][Dd]/c/ [Dd]/c/[Dd]/c/ [Dd]/c/[Dd]/A/ | %71
 [G,G][G,G]/F/ [G,G][G,G]/F/ [G,G]/F/[G,G]/F/ [G,G]/F/[G,G]/F/ | %72
 [Dd][Dd]/^c/ [Dd][Dd]/c/ [Dd]/c/[Dd]/c/ [Dd]/c/[Dd]/A/ |!f! [Dd]2 [Ff]2 [Gg]3 [G,G] | %74
 [G,G][F,F] [G,G][A,A]/[B,B]/ [A,A]2 [G,G]2 | [GBg]2 [Bdb]2 [dd']3 [cc']/[Bb]/ | %76
 [Bdb][Aca][GBg][FAf] [GBg]4 | [ege']2 [ege']2 [dgd']3 [Gg]/[Bb]/ | [cec']2 [cec']2 [Bdb]4 | %79
 [ege']2 [ege']2 [dgd']3 [Bdb]/[^A^a]/ | [Bdb][A=ca][GBg][FAf] [GBg]2 E2 | D2 F2 G4 | %82
 z/!p! D/F/A/ d/d/[fad']/ z/ z/ G,/B,/D/ G/G/[Bdg]/ z/ |!p! [dfad']6 z2 | %84
!f! G2- G/D/B/A/ G2- G/D/B/A/ | G2- G/d/b/a/ g2- g/d'/b'/a'/ | g'2 z2 c z [dd']/f/[dd']/f/ | %87
 [gg']8 |] %88
V:2
 G,,2 G,,G,, D,,2 D,,2 | G,,2 [D,G,]2 B,,2 [D,G,]2 | A,,2 [D,F,]2 D,,2 [B,,G,]2 | %3
 G,,2 [D,B,]2 B,,2 [D,B,]2 | D,,2 D,,D,, G,,4 | G,,2 [D,G,]2 B,,2 [D,G,]2 | G,,2 B,,2 D,,2 B,,2 | %7
 G,,2 [D,B,]2 B,,2 [D,B,]2 | D,,2 D,,D,, G,,4 | C,, [E,,C,]2 C, D,, [G,,D,]2 D, | %10
 D,, [F,,D,]2 D, G,,3 G, | CB,CA, B,A,G,F, | G,B,D,C, [G,,D,]4 |] %13
 z [D,,D,] z [E,,E,] z [D,,D,] z [G,,G,] | z [D,,D,] z [G,,G,] z [A,,A,] z [G,,G,] | %15
 z [D,D] z [C,C] z [B,,B,] z [G,,G,] | z [D,,D,] z [F,,F,] z [A,,A,] z [G,,G,] | %17
 z [C,C] z [E,E] z [D,D] z [B,,B,] | z [C,C] z [C,C] z [G,,G,] z [B,,B,] | %19
 z [C,C] z [E,E] z [D,D] z [B,,B,] | z [B,,B,] z [A,,A,] [G,,G,]4 |] %21
 .G,,.[G,B,].[F,A,].[G,B,] .[G,B,].[A,C].[B,D].[G,B,] | %22
 .G,,.[F,A,].[G,B,].[A,C] .[A,C] z .[G,B,].D, | %23
 .G,,.[G,B,].[F,A,].[G,B,] .[G,B,].[DG].[DG].[G,B,] | %24
 .[B,,B,] z .[G,,G,].[F,,F,] .[G,,G,].[G,,,G,,] [G,,,G,,]2 | %25
 .G,,.[G,B,].[F,A,].[G,B,] .[G,B,].[A,C].[B,D].[G,B,] | %26
 .G,,.[F,A,].[G,B,].[A,C] .[A,C] z .[G,B,].D, | %27
 .G,,.[G,B,].[F,A,].[G,B,] .[G,B,].[DG].[DG].[G,B,] | %28
 .[B,,B,] z .[G,,G,].[F,,F,] .[G,,G,].[G,,,G,,] [G,,,G,,]2 | %29
 .C,,.[C,E,].[B,,D,].[C,E,] .[B,,D,].[D,G,].[D,G,].[G,B,] | %30
 .[A,C].[CE].[B,D].[A,C] .[G,B,].[G,B,].[B,D].[G,B,] | %31
 .C,,.[C,E,].[B,,D,].[C,E,] .[B,,D,].[D,G,].[D,G,].[G,B,] | %32
 B,,/B,/A,,/A,/ G,,/G,/F,,/F,/ .[G,,G,]2 G,,,2 |] z8 | z4 G,4 | z4 D,4 | z4 G,4 | D,4 z4 | %38
 G,,4 z2 B,2 | B,4 [G,,G,]4 | E,E,,E,C, D,D,,D,B,, | D,F,G,D D2 z2 | E,E,,E,C, D,D,,D,B,, | %43
 B,,2 G,,2 B,,2 A,,2 | [G,,G,]4 z4 |][K:Bb] D,,A,,!1!D,!4!A,, !5!G,,D, G,2 | G,,D, G,2 G,,D, G,2 | %47
 B,,G, B,2 D,B, D2 | A,,C, A,2 G,,D, G,2 | D,,A,,!1!D,!4!A,, !5!G,,D, G,2 | G,,D, G,2 G,,D, G,2 | %51
 B,,G, B,2 D,B, D2 | A,,C, A,2 G,,D, G,2 | E,C E2 DB, D,2 | C,G, C2 B,G, B,,2 | %55
 E,,C, E,2 D,,B,, D,2 | [G,,G,][A,,A,][B,,B,][A,,A,] [G,,G,] z z2 |][K:Bb] z8 | z8 | z8 | z8 | z8 | %62
 z8 | z8 | z8 | z8 | z8 | B,, B,2 A, B,DGD | EC A,^F,/E,/ D,2 D,C, |[K:G] B,,G,, G,,2 z4 | %70
 F,D, D,2 z4 | B,,G,, G,,2 z4 | [F,,F,][D,,D,] [D,,D,]2 z2 [A,,,A,,]2 | %73
 [D,,,D,,]2 (3[D,,,D,,][D,,,D,,][D,,,D,,] [G,,,G,,][F,,,F,,][G,,,G,,][B,,,B,,] | %74
 [D,,D,][F,,F,][G,,G,][A,,A,] [A,,A,][F,,F,] [G,,G,]2 | %75
 (3[G,,,G,,][G,,,G,,][G,,,G,,] (3[B,,,B,,][B,,,B,,][B,,,B,,] [D,,D,][^C,,^C,][D,,D,][=C,,=C,] | %76
 [B,,,B,,][C,,C,][B,,,B,,][A,,,A,,] [G,,,G,,]4 | E,EE,E D,DD,D | C,CC,C B,,B,G,,G, | %79
 E,EE,E D,DD,D | B,,A,G,,F, G,, z z2 | D,2 F,2 G,4 | %82
 .D,,.[A,,D,].D,,.[A,,D,] .G,,,.[D,,G,,].B,,,.[G,,B,,] | [D,,A,,]6 z2 | z8 | z8 | z4 C2 B,A, | %87
 [G,B,]8 |] %88
V:3
 x8 | x8 | x8 | x8 | x8 | x8 | x2 G,A, x2 G,2 | x8 | x8 | x8 | x8 | x8 | x8 |] x8 | x8 | x8 | x8 | %17
 x8 | x8 | x8 | x8 |] x8 | x8 | x8 | x8 | x8 | x8 | x8 | x8 | x8 | x8 | x8 | x8 |] x8 | x8 | x8 | %36
 x8 | x8 | x8 | x8 | x8 | x8 | x8 | x8 | x8 |][K:Bb] x8 | x8 | x8 | x8 | x8 | x8 | x8 | x8 | x8 | %54
 x8 | x8 | x8 |][K:Bb] x8 | x8 | x8 | x8 | x8 | x8 | x8 | x8 | x8 | x8 | x8 | x8 |[K:G] x8 | x8 | %71
 x8 | x8 | x8 | x8 | x8 | x8 | x8 | x8 | x8 | x8 | x8 | x8 | x8 | x8 | x8 | x8 | x8 |] %88
V:4
!mf! [Bg]2 z2 [Af]2 [Af][Af] | [Bg]2 z2!p! GDGG, | GFB,C C2 B,G, | GDGB, BGBG | BAGF G4 | %5
 DDFA GDGG, | GFB,C C2 B,G, | GDGB, BGBG | BAGF G4 | CEcG BGDG | FEDC B,DG,B, | CEcG BGDG | %12
 [Bd]A[GB]F [GB]4 |]!mf!{/E} D/^C/D/F/ A/D/A/F/{/A} G/F/G/B/ d/G/d/B/ | %14
 c/B/A/G/ F/G/A/B/ A/B/c/A/ G2 |!f!{/E} D/^C/D/F/ A/D/A/F/{/A} G/F/G/B/ d/G/d/B/ | %16
 c/B/A/G/ F/G/A/B/ A/B/c/A/ G2 |{/F} E/^D/E/G/ c/e/g/c'/ b/g/=d/g/ b/g/d/B/ | %18
 c/B/c/d/ c/G/c/e/ d/G/B/d/ g/b/d'/g'/ | %19
{/f'} e'/^d'/e'/g'/!8va(! c''/e''/g''/c'''/ b''/g''/d''/g''/ b''/g''/d''/b'/ | %20
 c''/b'/a'/g'/ f'/e'/d'/c'/ b/c'/b/^a/ !fermata![gb]2!8va)! |] %21
!p! [ge']/[bd']/ z z2 [Ge]/[Bd]/ z z2 | [Ba]/[dg]/ z z2 [cb]/[df]/ z z2 | %23
 [dc']/[gb]/ z z2 [ba']/[d'g']/ z z2 | [Dc]/[GB]/ z z2 .[GB]2 z2 | %25
 [ge']/[bd']/ z z2 [Ge]/[Bd]/ z z2 | [Ba]/[dg]/ z z2 [cb]/[df]/ z z2 | %27
 [dc']/[gb]/ z z2 [ba']/[d'g']/ z z2 | [Dc]/[GB]/ z z2 .[GB]2 z2 | %29
 [ed']/[gc']/ z z2 [dc']/[gb]/ z z2 | [cb]/[ea]/ z z2 [Ba]/[dg]/ z z2 | %31
 [ed']/[gc']/ z z2 [dc']/[gb]/ z z2 | %32
 .[Bb].[dd'].[ee'].[ff'] .[gg'] z/ [Ge]/ [Bd]/[Ge]/!fermata![Bd] |] z2!f! (3DEF G2 (3DEF | %34
 (3DEF (3DEF GB/A/ GF | G^AB^c (3def (3ed=c | (3BcB (3ABA (3GAG (3FGE | (3FGA (3FGA Bd/c/ B^A | %38
 B^cd^e (3fga (3gf=e | (3ded (3=cdc (3BcB (3ABD | [Ee]2 [Ee][Cc] [Dd]2 [Dd][B,B] | %41
 [Dd][Ff][Gg][Bb] [Bb]2 [GBd]2 | [Ee]2 [Ee][Cc] [Dd]2 [Dd][B,B] | %43
 [B,B][Dd][G,G][A,A] (3[B,B]AG (3DEF | [G,G]4 z4 |] %45
[K:Bb]!f! [Dd]/!4!^c/[Dd] [^F^f]/^e/[Ff] [Gg]f[Gg][Gg] | [Gg][^F^f] [Gg][Bb]/[Aa]/ [Aa]2 [Gg]2 | %47
!<(! [Gg]2 [Bb]2 [dd']3!<)!!>(! [Bb] | [cc']/[Bb]/[Aa] [Aa][Bb] [Gg]4!>)! | %49
 [Dd]/^c/[Dd] [^F^f]/^e/[Ff] [Gg]f[Gg][Gg] | [Gg][^F^f] [Gg][Bb]/[Aa]/ [Aa]2 [Gg]2 | %51
!<(! [Gg]2 [Bb]2 [dd']3!<)!!>(! [Bb] | [cc']/[Bb]/[Aa] [Aa][Bb] [Gg]4!>)! | %53
 [ee']/d'/[ee'] [ee'][ee'] [dd']BA[Gg] | [cc']/=b/[cc'] [cc'][cc'] [B_b]GGD | %55
 [ee']/d'/[ee'] [ee'][ee'] [dd']BA[Bb] | [Bb][Aa][Gg][^F^f] [Gg]/f/ [Gg]3 |][K:Bb] z8 | z8 | z8 | %60
 z8 | z8 | z8 | z8 | z8 |!mf! B, B2 A Bdgd | ecA^F E2 DC | B,/A,/B,/C/ D/^C/D/C/ D/G/F/E/ D2 | %68
 E/D/E/^F/ G/A/B/c/ d/e/f/e/ d/c/=B/A/ |[K:G] [GBdg]>[GBdg] [GBdg]2 [GBdg]2 [Bdgb]2 | %70
 [DFAd]>[DFAd] [DFAd]2 [DFAd]2 [FAdf]2 | [GBdg]>[GBdg] [GBdg]2 [GBdg]2 [Bdgb]2 | %72
 [cc']2 [Aa]2 [Gg]2 [Ee]2 | [DFd]2 [FAf]2 [GBg]3 [gbg'] | %74
 [gbg'][faf'] [gbg'][aa']/[bb']/ [ac'a']2 [gbg']2 | [gbg']2 [bd'b']2 [d'd'']3 [c'c'']/[bb']/ | %76
 [bd'b'][ac'a'][gbg'][faf'] [gbg']4 | e2 e2 d3 G | c2 c2 B4 | e2 e2 d3 B | BAGF G2 z2 | %81
 z/!p! D/F/A/ d/d/[fad']/ z/ z/ G,/B,/D/ G/G/[Bdg]/ z/ |!f! D2 F2 G4 |!p! D6 z2 | x8 | %85
 x/ [Cc][Dd][Ee][Ff][^G^g][^A^a][cc'][ff']/ |!f! [gg']2 z2 [cc'][Dd][Bb][Aa] | [Gdg]8 |] %88
V:5
 G,,2 G,G,, F,,F,F,,D,, | G,,2 z2 .[G,,,G,,]2 z2 | .[D,,,D,,]2 z2 .[G,,,G,,]2 z2 | %3
 .[G,,,G,,]2 z2 .[B,,,B,,]2 z2 | .[D,,D,]2 z2 [G,,,G,,]4 | z4 .[G,,,G,,]2 z2 | %6
 .[D,,,D,,]2 z2 .[G,,,G,,]2 z2 | .[G,,,G,,]2 z2 .[B,,,B,,]2 z2 | .[D,,D,]2 z2 [G,,,G,,]4 | %9
 .[C,,,C,,]2 z2 .[D,,,D,,]2 z2 | .[F,,,F,,]2 z2 .[G,,,G,,]2 z2 | .[C,,C,]2 z2 .[D,,D,]2 z2 | %12
 [D,,D,]2 [E,,E,][F,,F,] [G,,G,]4 |] .[D,,D,] [D,,D,]2 .[D,,D,] .[G,,G,] [G,,G,]2 .[G,,G,] | %14
 .[A,,A,] [F,,F,]2 .[A,,A,] [A,,A,]2 [G,,G,]2 | %15
 .[D,,D,] [D,,D,]2 .[D,,D,] .[G,,G,] [G,,G,]2 .[G,,G,] | %16
 .[A,,A,] [F,,F,]2 .[A,,A,] [A,,A,]2 [G,,G,]2 | %17
 .[C,,C,] [C,,C,]2 .[C,,C,] .[B,,,B,,] [B,,,B,,]2 .[B,,,B,,] | %18
 .[C,,C,] [C,,C,]2 .[C,,C,] .[B,,,B,,] [G,,,G,,]2 .[B,,B,] | %19
 .[C,C] [C,C]2 .[C,C] .[B,,B,] [B,,B,]2 .[B,,B,] | [B,,B,]2 [A,,A,]2 [G,,G,]4 |] %21
 G,,,2 .[G,,G,].[B,,D,] z2 .[G,,G,].[B,,D,] | z2 .[G,,G,].[B,,D,] z2 .[G,,G,].[B,,D,] | %23
 z2 .[B,,B,].[D,G,] z2 .[D,D].[G,B,] | z2 [B,,B,][D,G,] z2 [G,,G,][B,,D,] | %25
 G,,,2 [G,,G,][B,,D,] z2 .[G,,G,].[B,,D,] | z2 .[G,,G,].[B,,D,] z2 .[G,,G,].[B,,D,] | %27
 z2 .[B,,B,].[D,G,] z2 .[D,D].[G,B,] | z2 .[B,,B,].[D,G,] z2 .[G,,G,].[B,,D,] | %29
 z2 [E,,E,][G,,C,] z2 [D,,D,][G,,B,,] | z2 [C,,C,][E,,A,,] z2 [B,,,B,,][D,,G,,] | %31
 z2 .[E,E].[G,C] z2 .[D,D].[G,B,] | %32
 [B,,D,G,B,]2 z2 .[G,,B,,D,G,] z/ [G,,E,]/ [B,,D,]/ z/ !fermata!G,, |] z8 | z4 G,,4 | z4 D4 | %36
 z4 G,,,4 | [D,,D,]4 [F,,F,]4 | [G,,G,]2 [B,,B,]2 [D,D]2 z [B,,B,] | %39
 [B,,B,][A,,A,][G,,G,][F,,F,] [G,,G,]2 z2 | z8 | z8 | z8 | z8 | z8 |][K:Bb] z8 | z8 | z8 | z8 | %49
 D,, z ^F,D, G,>G,, G,,2 | G,>G,, G,,2 G,>G,, G,,2 | G,>G,, G,,2 D>D, D,2 | C>C, C,2 G,>G,, G,,2 | %53
 z8 | z8 | E>E, E,2 D>D, D,2 | B,>B,, B,,2 G,>G,, G,,2 |][K:Bb] z8 | z8 | z8 | z8 | %61
!mp! A,2 G,2 G,2 =E,2 | D,^C, D,=E,/F,/ E,D,/C,/ D,A,, | F,=E, F,G,/A,/ B,A,/^G,/ A,=G,/F,/ | %64
 G,F,=E,F, D,4 | G,,2 G,^F, G,B,G,D, | E,C, A,,/G,,/^F,, F,,F,,D,,A,,, | %67
!f! G,,,2 !^![G,,G,]2 !^![^F,,^F,]2 !^![=F,,=F,]2 | %68
 !^![=E,,=E,]2 !^![_E,,_E,]2 !^![D,,D,]2 !^![A,,,A,,]2 |[K:G] .[G,,,G,,]2 z2 z4 | .[D,,D,]2 z2 z4 | %71
 .[G,,G,]2 z2 z4 | .[D,,,D,,]2 z2 z4 | D,,D,F,,F, G,,G,G,,G, | B,,A,G,,A, A,,A,G,,G, | %75
 G,,G,B,,B, D,DD,C | B,,A,G,,F, G,,2 z2 | [E,,E,]2 [C,,,G,,,C,,]2 [D,,D,]2 [B,,,,G,,,B,,,]2 | %78
 [C,,C,]2 [C,,,G,,,C,,]2 [B,,,B,,]4 | [E,E][^D,^D][E,E][^C,^C] [=D,=D][C,C][D,D][B,,B,] | %80
 [B,,B,][A,,A,][G,,G,][F,,F,] [G,,G,]2 z2 | .D,,.[A,,D,].D,,.[A,,D,] .G,,,.[D,,G,,].B,,,.[G,,B,,] | %82
 D,2 F,2 G,4 | D,,6 z2 | %84
"^cresc." [G,,,G,,][A,,,A,,][B,,,B,,][^C,,^C,] [^D,,^D,][^E,,^E,][=G,,=G,][=A,,=A,] | %85
 [B,,B,][^C,^C][^D,^D][^E,^E] [G,G][A,A][K:treble][B,B][=Dd] | %86
 [Gg]2 z2[K:bass] [C,C][D,,D,][B,,B,][A,,A,] | [G,,B,,G,]8 |] %88
V:6
 x8 | x8 | x8 | x8 | x8 | x8 | x8 | x8 | x8 | x8 | x8 | x8 | x8 |] x8 | x8 | x8 | x8 | x8 | x8 | %19
 x8 | x8 |] x8 | x8 | x8 | x8 | x8 | x8 | x8 | x8 | x8 | x8 | x8 | x8 |] x8 | x8 | x8 | x8 | x8 | %38
 x8 | x8 | x8 | x8 | x8 | x8 | x8 |][K:Bb] x8 | x8 | x8 | x8 | x8 | x8 | x8 | x8 | x8 | x8 | x8 | %56
 x8 |][K:Bb] x8 | x8 | x8 | x8 | x8 | x8 | x8 | x8 | x8 | x8 | x8 | x8 |[K:G] x8 | x8 | x8 | x8 | %73
 x8 | x8 | x8 | x8 | x8 | x8 | x8 | x8 | x8 | x8 | x8 | %84
 x/ [^G,,^G,][^A,,^A,][C,C][D,D][E,E][F,F][^G,^G][^A,^A]/ | x6[K:treble] x2 | x4[K:bass] x4 | x8 |] %88

